src/mimetypes/16/application-x-bittorrent.svg

<?xml version="1.0" encoding="UTF-8" standalone="no"?>
<svg
   xmlns:dc="http://purl.org/dc/elements/1.1/"
   xmlns:cc="http://creativecommons.org/ns#"
   xmlns:rdf="http://www.w3.org/1999/02/22-rdf-syntax-ns#"
   xmlns:svg="http://www.w3.org/2000/svg"
   xmlns="http://www.w3.org/2000/svg"
   xmlns:xlink="http://www.w3.org/1999/xlink"
   height="16.99999"
   id="svg11300"
   style="display:inline;enable-background:new"
   version="1.0"
   viewBox="0 0 16 16.99999"
   width="16">
  <metadata
     id="metadata155">
    <rdf:RDF>
      <cc:Work
         rdf:about="">
        <dc:format>image/svg+xml</dc:format>
        <dc:type
           rdf:resource="http://purl.org/dc/dcmitype/StillImage" />
        <dc:title>elementary Icon Template</dc:title>
      </cc:Work>
    </rdf:RDF>
  </metadata>
  <title
     id="title4162">elementary Icon Template</title>
  <defs
     id="defs3">
    <linearGradient
       id="linearGradient3104-9">
      <stop
         id="stop3106-5"
         offset="0"
         style="stop-color:#000000;stop-opacity:0.33950618" />
      <stop
         id="stop3108-5"
         offset="1"
         style="stop-color:#000000;stop-opacity:0.24691358" />
    </linearGradient>
    <linearGradient
       gradientTransform="matrix(0.25378586,0,0,0.30501865,19.128979,-0.68549)"
       gradientUnits="userSpaceOnUse"
       xlink:href="#linearGradient3104-9"
       id="linearGradient3019"
       x1="-51.786404"
       x2="-51.786404"
       y1="50.786446"
       y2="2.9062471" />
  </defs>
  <path
     style="display:inline;fill:#fafafa;fill-opacity:1;stroke:none"
     id="path4160"
     d="m 3,0.99999 c 2.291507,0 9.999988,8.9e-4 9.999988,8.9e-4 L 13,14.99999 l -10,0 z" />
  <path
     style="display:inline;fill:none;stroke:url(#linearGradient3019);stroke-width:0.99992192;stroke-linecap:butt;stroke-linejoin:round;stroke-miterlimit:4;stroke-dasharray:none;stroke-dashoffset:0;stroke-opacity:1"
     id="path4160-8"
     d="m 2.499962,0.49996 c 2.520676,0 11.000063,9.6e-4 11.000063,9.6e-4 l 1.3e-5,14.9991 -11.000076,0 z" />
  <path
     style="color:#bebebe;display:inline;overflow:visible;visibility:visible;fill:#3689e6;fill-opacity:1;fill-rule:nonzero;stroke:none;stroke-width:1;marker:none;enable-background:accumulate"
     id="path26667-3"
     d="m 4,8.99999 4,5 4,-5.00043 -2,4.3e-4 0,-1.50043 c 0,0.5 -0.704505,0.50043 -0.704505,0.50043 0,0 -0.720971,0 -0.720971,-0.5 0,-0.5 -0.588388,-0.5 -0.588388,-0.5 0,0 -0.588389,0 -0.588389,0.5 0,0.5 -0.588388,0.5 -0.588388,0.5 0,0 -0.809359,0 -0.809359,-0.50043 l 0,1.50043 z" />
  <path
     style="color:#bebebe;display:inline;overflow:visible;visibility:visible;opacity:0.2;fill:#3689e6;fill-opacity:1;fill-rule:nonzero;stroke:none;stroke-width:1;marker:none;enable-background:accumulate"
     id="path10362-6"
     d="m 7.986136,1.99999 c 0,0 -0.588389,0 -0.588389,0.5 0,0.5 -0.588388,0.5 -0.588388,0.5 0,0 -0.809359,4.2e-4 -0.809359,-0.5 l 0,7 4,-4.3e-4 0,-7 c 0,0.5 -0.704505,0.50043 -0.704505,0.50043 0,0 -0.720971,0 -0.720971,-0.5 0,-0.5 -0.588388,-0.5 -0.588388,-0.5 z" />
  <path
     style="color:#bebebe;display:inline;overflow:visible;visibility:visible;opacity:0.5;fill:#3689e6;fill-opacity:1;fill-rule:nonzero;stroke:none;stroke-width:1;marker:none;enable-background:accumulate"
     id="path10323-1"
     d="m 6.809359,4.99999 c 0,0 -0.809359,-4.3e-4 -0.809359,0.5 l 0,3 4,-4.3e-4 0,-3 c 0,-0.5 -0.704505,-0.49957 -0.704505,-0.49957 0,0 -0.720971,0 -0.720971,0.5 0,0.5 -0.588388,0.5 -0.588388,0.5 0,0 -0.588389,0 -0.588389,-0.5 0,-0.5 -0.588388,-0.5 -0.588388,-0.5 z" />
</svg>

<?xml version="1.0" encoding="UTF-8" standalone="no"?>
<svg
   xmlns:dc="http://purl.org/dc/elements/1.1/"
   xmlns:cc="http://creativecommons.org/ns#"
   xmlns:rdf="http://www.w3.org/1999/02/22-rdf-syntax-ns#"
   xmlns:svg="http://www.w3.org/2000/svg"
   xmlns="http://www.w3.org/2000/svg"
   xmlns:xlink="http://www.w3.org/1999/xlink"
   height="16"
   id="svg11300"
   style="display:inline;enable-background:new"
   version="1.0"
   viewBox="0 0 16 16"
   width="16">
  <metadata
     id="metadata155">
    <rdf:RDF>
      <cc:Work
         rdf:about="">
        <dc:format>image/svg+xml</dc:format>
        <dc:type
           rdf:resource="http://purl.org/dc/dcmitype/StillImage" />
        <dc:title>elementary Icon Template</dc:title>
      </cc:Work>
    </rdf:RDF>
  </metadata>
  <title
     id="title4162">elementary Icon Template</title>
  <defs
     id="defs3">
    <linearGradient
       id="linearGradient3104-9">
      <stop
         id="stop3106-5"
         offset="0"
         style="stop-color:#000000;stop-opacity:0.33950618" />
      <stop
         id="stop3108-5"
         offset="1"
         style="stop-color:#000000;stop-opacity:0.24691358" />
    </linearGradient>
    <linearGradient
       gradientTransform="matrix(0.25378586,0,0,0.30501865,19.128979,-0.68548)"
       gradientUnits="userSpaceOnUse"
       xlink:href="#linearGradient3104-9"
       id="linearGradient3019"
       x1="-51.786404"
       x2="-51.786404"
       y1="50.786446"
       y2="2.9062471" />
  </defs>
  <path
     style="display:inline;fill:#fafafa;fill-opacity:1;stroke:none"
     id="path4160"
     d="m 3,1 c 2.291507,0 9.999988,8.9e-4 9.999988,8.9e-4 L 13,15 H 3 Z" />
  <path
     style="display:inline;fill:none;stroke:url(#linearGradient3019);stroke-width:0.99992192;stroke-linecap:butt;stroke-linejoin:round;stroke-miterlimit:4;stroke-dasharray:none;stroke-dashoffset:0;stroke-opacity:1"
     id="path4160-8"
     d="m 2.499962,0.49997 c 2.520676,0 11.000063,9.6e-4 11.000063,9.6e-4 l 1.3e-5,14.9991 H 2.499962 Z" />
  <path
     style="color:#bebebe;display:inline;overflow:visible;visibility:visible;fill:#3689e6;fill-opacity:1;fill-rule:nonzero;stroke:none;stroke-width:1;marker:none;enable-background:accumulate"
     id="path26667-3"
     d="M 4,9 8,14 12,8.99957 10,9 V 7.49957 C 10,7.99957 9.295495,8 9.295495,8 c 0,0 -0.720971,0 -0.720971,-0.5 0,-0.5 -0.588388,-0.5 -0.588388,-0.5 0,0 -0.588389,0 -0.588389,0.5 C 7.397747,8 6.809359,8 6.809359,8 6.809359,8 6,8 6,7.49957 V 9 Z" />
  <path
     style="color:#bebebe;display:inline;overflow:visible;visibility:visible;opacity:0.2;fill:#3689e6;fill-opacity:1;fill-rule:nonzero;stroke:none;stroke-width:1;marker:none;enable-background:accumulate"
     id="path10362-6"
     d="m 7.986136,2 c 0,0 -0.588389,0 -0.588389,0.5 C 7.397747,3 6.809359,3 6.809359,3 6.809359,3 6,3.00042 6,2.5 v 7 l 4,-4.3e-4 v -7 C 10,2.99957 9.295495,3 9.295495,3 9.295495,3 8.574524,3 8.574524,2.5 8.574524,2 7.986136,2 7.986136,2 Z" />
  <path
     style="color:#bebebe;display:inline;overflow:visible;visibility:visible;opacity:0.5;fill:#3689e6;fill-opacity:1;fill-rule:nonzero;stroke:none;stroke-width:1;marker:none;enable-background:accumulate"
     id="path10323-1"
     d="M 6.809359,5 C 6.809359,5 6,4.99957 6,5.5 v 3 l 4,-4.3e-4 v -3 C 10,4.99957 9.295495,5 9.295495,5 c 0,0 -0.720971,0 -0.720971,0.5 0,0.5 -0.588388,0.5 -0.588388,0.5 0,0 -0.588389,0 -0.588389,-0.5 C 7.397747,5 6.809359,5 6.809359,5 Z" />
</svg>
